src/assets/svg/logo.svg

<svg width="46" height="46" viewBox="0 0 46 46" fill="none" xmlns="http://www.w3.org/2000/svg">
<path d="M20.8371 1.07751C11.4213 2.24137 3.87052 8.92169 1.60442 18.047C-0.22675 25.4532 1.75368 33.108 6.95576 38.6981C12.8661 45.041 21.7155 47.4661 29.9138 44.9771C33.6286 43.8624 37.3253 41.5598 39.8888 38.7787C45.0331 33.2173 46.9765 26.0051 45.4122 18.282C45.0843 16.6852 43.724 13.4613 42.5658 11.5537C40.7312 8.55053 37.5038 5.5051 34.2744 3.71558C30.3723 1.55324 25.1651 0.522376 20.8371 1.07751ZM28.0145 2.74302C32.0567 3.63815 35.7062 5.66926 38.6421 8.68505C41.8085 11.9515 43.7724 15.9582 44.4367 20.5631C44.6524 21.9659 44.6509 22.0003 44.2391 22.7742C42.8947 25.2288 39.1319 27.064 36.7665 26.4125C35.6769 26.1251 35.1408 25.7753 34.0176 24.6607C32.6634 23.3125 32.4213 23.3366 31.1435 25.037C30.7786 25.5204 30.3686 25.847 30.0735 25.9032C29.6739 25.9894 29.5393 25.9148 29.1817 25.4178C28.5496 24.4962 27.7599 23.6366 27.5364 23.6271C27.4333 23.6227 26.8449 24.0965 26.235 24.6727C23.9384 26.8458 22.7413 26.657 22.5576 24.1028C22.4283 22.2907 21.8275 22.2479 20.8591 23.9615C20.1317 25.2725 18.9746 26.5651 18.0202 27.1438C17.2077 27.6252 15.7106 28.0087 15.2697 27.8522C15.1516 27.7956 14.8451 27.7137 14.5895 27.6512C13.9259 27.468 13.033 26.604 13.3325 26.4448C13.4565 26.364 13.7172 26.3063 13.9063 26.3144C14.5078 26.3401 16.3369 25.4374 17.0185 24.7955C17.7195 24.1028 18.2597 23.1452 18.2868 22.5097C18.3169 21.8056 17.752 20.9212 16.9962 20.476C14.5772 19.0652 11.6349 21.0387 11.4836 24.1808L11.4224 25.2105L10.8089 25.0639C10.4674 24.9977 9.07643 24.5082 7.72135 23.9858C4.23236 22.6326 4.02686 22.6066 2.37547 23.3792C2.12974 23.4891 2.32634 20.8995 2.6746 19.1938C4.04241 12.5593 8.22897 7.24952 14.4169 4.26179C16.1923 3.40847 18.5468 2.7003 20.4347 2.43676C22.3219 2.19039 26.1379 2.33603 28.0145 2.74302ZM16.6857 21.7016C17.1471 22.1858 17.1789 22.6517 16.8066 23.3068C16.2671 24.2473 14.8026 25.0795 13.4548 25.194C12.7629 25.2677 12.6949 25.2476 12.6101 24.8138C12.3835 23.6686 13.1794 21.9648 14.1981 21.4922C15.0951 21.0487 16.1928 21.1472 16.6857 21.7016ZM44.4384 26.1721C43.3304 35.192 36.693 42.2554 27.5356 44.2218C25.2945 44.6939 21.5929 44.6908 19.2381 44.1946C12.2925 42.7454 6.65415 38.1002 3.8699 31.5294C2.96326 29.3745 2.67818 27.9859 2.74014 26.1304C2.78306 24.7214 2.82329 24.5854 3.21457 24.2924C3.8366 23.8372 4.58985 23.9382 6.65355 24.8005C8.49676 25.5846 10.857 26.3563 11.407 26.3798C11.5788 26.3871 11.9101 26.6938 12.1704 27.049C12.7539 27.8997 12.9857 28.1161 13.811 28.547C14.7028 29.0324 16.1808 29.0955 17.3856 28.6996C18.4337 28.3486 20.0712 27.0936 20.9108 25.9767L21.4759 25.2438L21.7895 25.9626C22.1668 26.8046 22.7866 27.2095 23.7662 27.2513C24.6942 27.2909 25.5733 26.8639 26.6499 25.8431L27.5286 25.0204L28.0621 25.8346C28.6598 26.7547 29.1436 27.1195 29.8131 27.1653C30.4146 27.1909 31.3346 26.6108 32.0079 25.7621C32.2997 25.3788 32.623 25.0657 32.6917 25.0686C32.7612 25.0544 33.1762 25.4162 33.6054 25.8475C34.7608 27.0151 35.6713 27.4669 37.2143 27.6188C39.477 27.853 41.8568 26.9566 43.7397 25.196C44.1175 24.8164 44.4916 24.5227 44.5432 24.5249C44.5947 24.5271 44.546 25.2648 44.4384 26.1721Z" fill="#181306"/>
</svg>

<svg xmlns="http://www.w3.org/2000/svg" width="46" height="46" fill="none"><path fill="#181306" d="M20.837 1.078C11.421 2.24 3.871 8.922 1.604 18.047c-1.83 7.406.15 15.061 5.352 20.651 5.91 6.343 14.76 8.768 22.958 6.28 3.715-1.116 7.411-3.418 9.975-6.2 5.144-5.56 7.087-12.773 5.523-20.496-.328-1.597-1.688-4.82-2.846-6.728-1.835-3.003-5.062-6.049-8.292-7.838-3.902-2.163-9.109-3.194-13.437-2.638m7.178 1.665c4.042.895 7.691 2.926 10.627 5.942 3.166 3.266 5.13 7.273 5.795 11.878.215 1.403.214 1.437-.198 2.211-1.344 2.455-5.107 4.29-7.472 3.639-1.09-.288-1.626-.638-2.75-1.752-1.354-1.349-1.596-1.324-2.874.376-.364.483-.774.81-1.07.866-.4.086-.534.012-.891-.485-.632-.922-1.422-1.781-1.646-1.79-.103-.005-.691.468-1.301 1.045-2.297 2.173-3.494 1.984-3.677-.57-.13-1.812-.73-1.855-1.699-.142-.727 1.312-1.884 2.604-2.839 3.183-.812.481-2.31.865-2.75.708-.118-.056-.425-.138-.68-.2-.664-.184-1.557-1.048-1.258-1.207.124-.081.385-.139.574-.13.602.025 2.43-.878 3.112-1.52.701-.692 1.242-1.65 1.269-2.285.03-.704-.535-1.589-1.29-2.034-2.42-1.41-5.362.563-5.513 3.705l-.062 1.03-.613-.147c-.342-.066-1.733-.556-3.088-1.078-3.489-1.353-3.694-1.38-5.346-.607-.245.11-.049-2.48.3-4.185C4.042 12.559 8.229 7.25 14.417 4.262c1.775-.854 4.13-1.562 6.018-1.825 1.887-.247 5.703-.101 7.58.306m-11.33 18.959c.462.484.494.95.122 1.605-.54.94-2.004 1.773-3.352 1.887-.692.074-.76.054-.845-.38-.226-1.145.57-2.85 1.588-3.322.897-.443 1.995-.345 2.488.21m27.753 4.47c-1.108 9.02-7.745 16.083-16.902 18.05-2.242.472-5.943.469-8.298-.027C12.293 42.745 6.654 38.1 3.87 31.529c-.907-2.154-1.192-3.543-1.13-5.399.043-1.409.083-1.545.475-1.838.622-.455 1.375-.354 3.439.508 1.843.785 4.203 1.556 4.753 1.58.172.007.503.314.763.669.584.85.816 1.067 1.641 1.498.892.485 2.37.549 3.575.153 1.048-.351 2.685-1.606 3.525-2.723l.565-.733.314.719c.377.842.997 1.246 1.976 1.288.928.04 1.807-.387 2.884-1.408l.879-.823.533.815c.598.92 1.082 1.284 1.751 1.33.602.026 1.522-.554 2.195-1.403.292-.383.615-.696.684-.693.07-.015.484.347.913.779 1.156 1.167 2.066 1.619 3.61 1.77 2.262.235 4.642-.661 6.525-2.422.377-.38.752-.673.803-.671s.003.74-.105 1.647"/></svg>
